X:6031
T:Gan Ainm 
R:Hornpipe
S:
H:
N:
D:Irish Dancing Tape (P. Acc)
Z:Adrian Scahill
M:4/4
L:1/8
K:A
(3efg|ae (3cde (3ABc (3EAc|dBGE (3DEF (3BCD|CecA FfdB|AGBG Ee (3efg|\
ae (3cde (3ABc (3EAc|dBGE (3DEF (3BCD|Cfe^d =dBGB|A2 (3aec A2 (3efg:||\
afec AFEC|B,DF^A Bcde|fdBG ED (3B^BC|A,CEA cag=g|\
fDFA df (3agf|eCEA ceae|(3fga gf (3efe (3dcB|(3ABA (3GAB A2 (3efg:||


